X: 1
T: di Mezinke Oysgegebn
T: the Youngest One is Married
C: Mark M. Varshavsky
%R: horra, song
Z: 2017 John Chambers <jc:trillian.mit.edu>
S: handwritten MS of unknown orogin
S: https://books.google.com/books?id=KZGzTqIJwqoC&pg=PA62&dq="di+mezinke+oysgegebn"
M: 2/4
L: 1/16
K: Em
% - - - - - - - - - -
[|\
B4 B4 | c2 B4 B2 | "E7"c3B c2B2 | "Am"B2 A6 | A4 A2A2 | "B7"(AGF)G A4 |
w: 1.~Shtar-ker, frey-lekh, Du~di mal-ke, ikh der mey-lekh, Oy, oy,* ikh-*a-*len
w: 5.~Shtar-ker, be-ser, Di rod, di rod macht gre-ser. Groys hot mich Got__ ge-macht,
%w: Bet-ter, strong-er, Let's dance a lit-tle long-er. Got has ex-alt-**ed me,
%
"Em"(B2G2) G2G2 | (GFE)F G4 | "Am"A2F2 F2FF | "B7"(FE^D)E F2 FF |
w: 1.~hob mit may-ne oy-*gn ge-zen Vi got hot mikh ma-tsli-*ekh ge-ven, Di me-
w: 5.~Glik_ hot er mir__ ge-bracht. Hul-yet kin-der, a gan-**tse nacht.
%w: He_ has made me__ hap-py. Let the par-ty just be__ care-free. For my
%
F2A2 G2F2 | "Em"E2 B4 FF | "B7"F2A2 G2F2 | "Em"G2 E6 |]
w: zin-ke oys-ge-ge-bn. Di me-zin-ke oys-ge-ge-bn.
%w: young-est daugh-ter's mar-ried. For my young-est daugh-ter's mar-ried.
% - - - - - - - - - -
